X:256
T:Lady Shaftsbury's Fancy. VWMLa.256
%%VWML:Anon2-3049-p171-0
F:http://www.vwml.org/record/Anon2/3049/p171
S:Anon. MS, late 18thC, Vaughan Williams Mem. Library
O:England;Yorkshire
Z:vmp/efdss.Simon Wilson. Reviewed PJH 2008.
M:C|
L:1/8
Q:1/2=70
K:A
(c/B/)|A>EC>E A>Bc>f|ecBA GB2c/B/|\
A>EC>E ABcf|ecBc A3:|
e|(ag)(fe) {g}a2Af|ecBA GB2e|\
agfe {g}a2Af|ecBc A3e|
agfe efga|bBBB Bcdf|\
e>fec BABc|(A/B/c/B/) AAA3|]
